!!!!SEGMENT: sonata10-2.krn
!!!COM: Beethoven, Ludwig van
!!!CDT: 1770///-1827///
!!!OTL: Piano Sonata no. 10 in G major
!!!OPS: 14
!!!ONM: 2
!!!OMV: 2
!!!OMD: Andante
**kern	**kern	**dynam
*staff2	*staff1	*staff1/2
*Ipiano	*Ipiano	*Ipiano
*>[A,B,B,C,D,D1,D,D2,E,F,F1,F,F2,G]	*>[A,B,B,C,D,D1,D,D2,E,F,F1,F,F2,G]	*>[A,B,B,C,D,D1,D,D2,E,F,F1,F,F2,G]
*>norep[A,B,C,D,D2,E,F,F2,G]	*>norep[A,B,C,D,D2,E,F,F2,G]	*>norep[A,B,C,D,D2,E,F,F2,G]
*>A	*>A	*>A
*clefF4	*clefG2	*
*k[]	*k[]	*
*C:	*C:	*
*M4/4	*M4/4	*
*MM112	*MM112	*
!!LO:TX:a:i:t=La prima parte senza replica
!	!	!LO:DY:rj
16r	16G	p
=1	=1	=1
8C'<	8c'> 8E<'> 8G<'>	.
8r	8r	.
8D'<	8B'> 8F<'> 8G<'>	.
8r	8r	.
8E'<	8c' 8G<'>	.
8r	8r	.
8BB'<	8d' 8G<'>	.
8r	8r	.
=2	=2	=2
8C'	8G'> 8c'> 8e'>	.
8r	8r	.
8FF'	8A'> 8d'> 8f'>	.
8r	8r	.
(4GG	2B 2d	.
8.GL	.	.
16FJk	.	.
=3	=3	=3
8E')	8c' 8g'	.
8r	8r	.
8D'	8B' 8f' 8g'	.
8r	8r	.
8C'	8c' 8e' 8g'	.
8r	8r	.
8BB'	8d' 8e' 8g#'	.
8r	8r	.
=4	=4	=4
8AA'	8c' 8e' 8a'	.
8r	8r	.
8FF'	8c' 8f' 8a'	.
8r	8r	.
2GG	[4B [4d	.
.	8.B] 8.dL]	.
.	16GJk	.
!!LO:LB:g=original
=5	=5	=5
8C'<	8c'> 8E<'> 8G<'>	.
8r	8r	.
8D'<	8B'> 8F<'> 8G<'>	.
8r	8r	.
8E'<	8G' 8c'	.
8r	8r	.
8BB'	8G' 8d'	.
8r	8r	.
=6	=6	=6
8C'	8G' 8e'	.
8r	8r	<
8AA' 8D'	8c' 8f#'	.
8r	8r	.
2BB 2D	2d 2g	rfz
=7	=7	=7
8C' 8G'	8e' 8a'	<
8r	8r	.
8C#' 8G'	8e' 8b-'	.
8r	8r	.
2D 2G	2d 2bn	rfz
=8	=8	=8
8D' 8A'	8f#' 8cc'	p
8r	8r	.
8D' 8c'	8f#' 8a'	.
8r	8r	.
8G' 8B'	8g'	.
8r	8r	.
8.r	8.r	.
=!|:	=!|:	=!|:
*>B	*>B	*>B
16r	16g	.
*clefG2	*	*
=9	=9	=9
4e (4g	4cc (4gg	p
4d 4g	4b 4ffn	.
4c 4g	4cc 4ee)	.
4B- 4g	4cc 4eet	.
.	(16qddL	.
.	16qeeJ)	.
*clefF4	*	*
!!LO:LB:g=original
=10	=10	=10
4A 4f	(4cc 4ccc	.
4G 4e	4cc 4bb-	.
2F 2f)	[4cc [4aa)	.
.	8.cc] 8.aaL]	.
.	16aJk	.
=11	=11	=11
(<4F 4c	4a (4aa	<
4E 4c#	4a 4gg	.
4D 4d	4a 4ff	.
4E	4g 4cc# 4ee	.
=12	=12	=12
4F	4f 4a 4dd	.
4F#	4e- 4a [4ccn	>
4G)	4d 4g 4cc]	.
*clefG2	*	*
(8.gL	4b/)	]
16fnJk	.	.
=13	=13	=13
8en')	8g' 8cc'	p
8r	8r	.
8d'	8f' 8g' 8b'	.
8r	8r	.
8c'	8e' 8g' 8cc'	.
8r	8r	.
*clefF4	*	*
8BB' 8D' 8G' 8B'	8d' 8g' 8dd'	.
8r	8r	.
=14	=14	=14
*^	*^	*
2.ryy	8C' 8E' 8G' 8c'	8e' 8g' 8cc' 8ee'	2.ryy	.
.	8r	8r	.	.
.	8FF'\ 8AA'\ 8D'\ 8F'\	8f'/ 8a'/ 8dd'/ 8ff'/	.	.
.	8r	8r	.	.
.	8GG'\ 8BB'\ 8D'\ 8G'\	8d' 8g' 8b' 8dd'	.	.
.	8r	8r	.	.
8r	8r	[4gg	[4g	f
8B	8F	.	.	.
!!LO:LB:g=original
=15	=15	=15	=15	=15
4c	4E	4gg]	4g]	.
([4c#	(4E	([4gg	(4b-	sf
4c#]	2F	4gg]	2a	>
4d)	.	4ff	.	.
*v	*v	*	*	*
*	*v	*v	*
=16	=16	=16
8G')	8g'/ 8cc'/ 8ee'/))	] p
8r	8r	.
8GG'	8f' 8bn' 8dd'	.
8r	8r	.
8C'	8e' 8g' 8cc'	.
8r	8r	.
4r	4r	.
=17	=17	=17
8GG'<	8B'> 4D<'> 4F<'>	.
8rDD	8r	.
8CC'<	8c'> 4E<'> 4G<'>	rfz
8rDD	8r	.
8AA'<	8c#'> 4E<'> 4G<'>	.
8rDD	8r	.
8DD'<	8d' 4F<'> 4A<'>	rfz
8rDD	8r	.
=18	=18	=18
8BB'<	8F#<' 8A<' 8d#'>	.
8rGG	8r	.
8EE'	8G'> 8B'> 8e'>	rfz
8r	8r	.
2DD 2D	[2G [2B [2fn	rfz
=19	=19	=19
(<\4CC	4G] 4B] (>4f]	p
4C	4cn 4e 4G<	.
4AA	4c 4d 4Fn<	.
4FF)	4c 4f) 4A<	.
=20	=20	=20
8GG'<	8c'> 8e'> 8G<'>	.
8rGG	8r	.
8GGG'<	8d'> 8F<'> 8B<'>	.
8rGG	8r	.
8CC'<	8c' 8E<' 8G<'>	.
8rGG	8r	.
8.rGG	8.r	.
!!LO:LB:g=original
=:|!	=:|!	=:|!
*>C	*>C	*>C
!!LO:TX:b:i:t=sempre legato
16G	16r	p
=21	=21	=21
4E (4c	8r	.
.	(4gg	.
4F 4B	.	.
.	4gg	.
4E 4c	.	.
.	4gg	.
4B 4d	.	.
.	[8gg	.
=22	=22	=22
4c 4e	8gg]	.
.	4gg	.
4d 4f	.	.
.	4gg	.
2B 2d)	.	.
.	8ggL	.
.	8gg	.
.	8ggJ)	.
*clefG2	*	*
=23	=23	=23
(<4e 4g	8r	.
.	(4gg	.
4d 4g	.	.
.	4ff	.
4c 4g	.	.
.	4ee	.
4B 4g#	.	.
.	[8dd	.
=24	=24	=24
*	*^	*
4A 4a	8dd]	4r	.
.	4cc	.	.
*clefF4	*	*	*
4F	.	4a	.
.	8dd	.	.
2G)	8ccL	2d	.
.	8b	.	.
.	8a	.	.
.	8gJ)	.	.
*	*v	*v	*
=25	=25	=25
4E (4c	(8gg	.
.	4gg	.
4F 4B	.	.
.	4gg	.
4E 4c	.	.
.	4gg	.
4B 4d	.	.
.	[8gg)	.
*clefG2	*	*
!!LO:LB:g=original
=26	=26	=26
4c 4e	(8ggL]	<
.	8ccc')	.
4A 4f#	8ccc'	.
.	8ccc'J	.
2B 2g)	(8cccL	.
.	8bb	.
.	8aa	.
.	8ggJ)	.
=27	=27	=27
(4c 4a	8r	.
.	8eee'L	.
4c# 4a#	8eee'	.
.	8eee'J	.
2d) 2b	(8eeeL	.
.	8ddd	.
.	8ccc#	.
.	[8dddJ)	.
=28	=28	=28
(4d 4ccn	8dddL]	p
.	(8dd	.
4d 4a	8ee	.
.	[8ff#J)	.
2G) 2g	8ff#L]	.
.	(8gg	.
.	8dd	.
.	8bJ)	.
=29	=29	=29
(4e 4g	8r	.
.	(4gg	<
4d 4fn	.	.
.	4gg	.
4c 4e	.	.
.	4gg	.
4B-) 4e	.	.
.	[8gg)	[[
*clefF4	*	*
=30!|:	=30!|:	=30!|:
*>D	*>D	*>D
*	*^	*
4A (4c	8gg]	4cc	.
.	4ffn	.	.
4G 4c	.	4b-	.
.	[8ee	.	.
2F 2c)	(8eeL]	2a	.
.	8ff	.	.
.	8gg	.	.
.	8gg#J)	.	.
*	*v	*v	*
*clefG2	*	*
!!LO:LB:g=original
=31	=31	=31
(4f 4a	(8aa	.
.	4aa	<
4c# 4g	.	.
.	4aa	.
4d 4f	.	.
.	4aa	.
4G) 4e	.	.
.	[8aa)	.
*clefF4	*	*
=32	=32	=32
*^	*	*
4d	(4F	(8aa]	.
.	.	4ddd)	.
4cn	4F#	.	.
.	.	[8dd	.
(4c	2G)	8dd]	.
.	.	(4gg	fz
4B)	.	.	.
.	.	16ffLL	.
.	.	16ddJJ)	.
*v	*v	*	*
=33	=33	=33
(4E 4c	8cc	p
.	(4gg	.
4F 4B	.	.
.	4gg	.
4E 4c	.	.
.	4gg	.
4B 4d	.	.
.	[8gg	.
=34	=34	=34
4c 4e	8gg]	.
.	4gg	.
4d 4f	.	.
.	4gg	.
4B 4d)	.	.
.	4gg)	.
*clefG2	*	*
4f 4g	.	<
.	([8b	.
=35	=35	=35
(4e 4g	8b]	.
.	4cc	.
4B- 4g	.	.
.	4cc#	.
4A 4g	.	.
.	4dd	.
4A) 4f	.	.
.	[8aa	.
*clefF4	*	*
!!LO:LB:g=original
=36	=36	=36
4G (4e	8aa]	p
.	4ccn	.
4G 4d	.	.
.	8b	.
4C 4c)	8ccL<	.
.	8g	.
4r	8e	.
.	8cJ)	.
=37	=37	=37
*	*	*^
(<4GG\	8r	.	rfz
.	(>4B 4D< 4F<	rfz	.
8CC)	.	.	.
8rCC	8c) 8E< 8G<	.	.
(<4AA\	8r	.	rfz
.	(>4c# 4E< 4G<	rfz	.
8DD\)	.	.	.
8rCC	8d) 8F< 8A<	.	.
=38	=38	=38	=38
(<4BB\	8r	.	rfz
.	(>4d# 4F#< 4A<	rfz	.
8EE)	.	.	.
8r	8e) 8G< 8B<	.	.
2DD\ 2D\	8r	.	rfz
.	4fn 4G< 4B<	rfz	.
.	[8f [8G< [8B<	.	.
*	*	*v	*v
=39	=39	=39
!	!	!LO:HP:a
(<4CC	8f] 8G<] 8B<]	<
.	4f 4G< 4B<	.
4C	.	.
.	4c 4e 4G<	.
4AA	.	.
.	4c 4d 4F<	.
4FF)	.	.
.	[8c [<8f [8A<	.
=40	=40	=40
*>D1	*>D1	*>D1
(<4GG	8c] 8f] 8A<]	p
.	4c 4e 4G<	.
4GGG	.	.
.	8d 8F< 8B<	.
4CC)	4c 4E< 4G<	.
4r	8r	.
.	8g	.
*clefG2	*	*
=41	=41	=41
(4e 4g	(8gg	<
.	4gg	.
4d 4f	.	.
.	4gg	.
4c 4e	.	.
.	4gg)	.
4B- 4e)	.	.
.	8gg	[[
*clefF4	*	*
!!LO:LB:g=original
=42:|!	=42:|!	=42:|!
*>D2	*>D2	*>D2
4GG	8c] 8f] 8A<]	p
.	4c 4e 4G<	.
(<4GGG	.	.
.	8d 8F< 8B<	.
4CC)	4c 4E< 4G<	.
4r	8r	.
.	8g	.
=43	=43	=43
*>E	*>E	*>E
8C	(8cc'L	p
8e	8g') 8cc'J	.
8C	8r	.
8d	(8f' 8g' 8b'	.
8C	8r	.
8c	8e' 8g' 8cc'	.
8C	8r	.
8B	8f') 8g' 8dd'	.
=44	=44	=44
8C	8r	.
8B-	(8g'/ 8cc'/ 8ee'/	.
8C	8r	.
8A	8f'/ 8cc'/ 8ff'/	.
8C	8r	.
8A-	8f' 8cc' 8dd'	.
8C	8r	.
8G	8f') 8b' 8dd'	.
=45	=45	=45
8CC	8r	<
8F	8g' 8b' 8dd' (8gg'	.
8CC	8r	.
8E	8g' 8cc' 8gg'	.
8CC	8r	.
8D	8b' 8ff' 8gg'	.
8CC	8r	.
8C	8b-' 8ee' 8gg#')	.
=46	=46	=46
*	*^	*
8FF	2ryy	8r	.
8F	.	8a' 8ff' (8aa'	.
8DD	.	8r	.
8D	.	8a' 8ff' 8aa')	.
8GG	8r	8r	.
4.G	4.bn 4.dd	4a-	sfz >
.	.	16gLL	.
.	.	16fJJ	]]
*	*v	*v	*
!!LO:LB:g=original
=47	=47	=47
8C	8r	p
8e	(8g' 8cc'	.
8C	8r	.
8d	8f' 8g' 8b'	.
8C	8r	.
8c	8e' 8g' 8cc'	.
8BB	8r	.
8B	8d') 8g' 8dd'	.
=48	=48	=48
8C	8r	<
8c	8e 8g 8cc 8ee	.
8AA	8r	.
8A	8f# 8cc 8ee- 8ff#	.
8BB	8r	.
4B 4d	4g 4dd 4gg	sf
8B 8d	8g 8dd 8gg	.
=49	=49	=49
8C	8r	.
8c	8a 8een 8gg 8aa	f
8C#	8r	.
8c#	8b- 8ee 8gg 8bb-	.
8D	8r	.
4d 4g	4bn 4dd 4gg 4bbn	sf
8d 8g	8b 8dd 8gg 8bb	.
=50	=50	=50
8D	8r	.
8d	8cc 8ff# 8ccc	f
8D	8r	.
8d	8cc 8ff# 8aa	.
4GG\ 4G\	8r	.
!	!	!LO:DY:cj
.	4gg	rfz
4r	.	.
.	(24ddLL	.
.	24b	.
.	24gJJ)	.
!!LO:LB:g=original
=51!|:	=51!|:	=51!|:
*>F	*>F	*>F
8G	8r	.
8B- 8c# 8e	8g' 8b-' 8cc#' (8gg'	p
8G	8r	.
8B- 8c# 8e	8g' 8b-' 8cc#' 8ffn'	.
8G	8r	.
8B- 8c# 8e	8g' 8b-' 8cc#' 8ee'	.
8G	8r	.
8B- 8cn 8e	8g' 8b-' 8ccn' 8ee')	.
=52	=52	=52
8A	8r	.
8c 8f	8cc 8ff 8ccc	.
8G	8r	.
8c 8e	8b- 8ee 8bb-	.
8F	8r	.
8c 8f	8a 8cc 8ff 8aa	.
8F	8r	.
8c# 8f	8a 8cc# 8ff 8aa	.
=53	=53	=53
8F	8r	.
8d 8f	8a 8dd 8ff 8aa	<
8F	8r	.
8B- 8c# 8e	8g 8b- 8cc# 8ee 8gg	.
8F	8r	.
8A 8d	8f 8a 8dd 8ff	.
8FF	8r	.
8G 8B-	8e\ 8g\ 8b-\ 8cc#\ 8ee\	.
=54	=54	=54
8FF	8r	f
8F 8A	8d 8f 8a 8dd	.
8FF#	8r	.
8F# 8A	8cn 8e- 8f# 8a 8ccn	.
8GG	8r	.
!	!	!LO:DY:a:cj
4Gz	4.Bn 4.d 4.g 4.bn	rfz
(24FnLL	.	.
24E	.	.
24DJJ)	.	.
!!LO:LB:g=original
=55	=55	=55
8C	8r	p
8c	(8en' 8g' 8cc'	.
8C	8r	.
8d	8f' 8g' 8b'	.
8C	8r	.
8c	8e' 8g' 8cc'	.
8C	8r	.
8B	8f') 8g' 8dd'	.
=56	=56	=56
8C	8r	.
8B-	8g/ 8cc/ 8ee/	.
8C	8r	.
8A	8f/ 8cc/ 8ff/	.
8C	8r	.
8A-	8f 8cc 8dd	.
8C	8r	.
8G	8f 8b 8dd	.
=57	=57	=57
8F	8r	<
8B 8d	8g 8b 8dd 8gg	.
8F	8r	.
8B- 8c# 8e	8g 8b- 8cc# 8gg	.
8F	8r	.
8B- 8c# 8e	8g 8b- 8cc# 8gg	.
8F	8r	.
8A 8d	8f 8a 8dd 8ff	.
=58	=58	=58
8GG	8r	p
8G 8c	8e 8g 8ccn 8ee	.
8GG	8r	.
8G 8B	8f 8g 8dd	.
8C	8r	.
!	!	!LO:DY:cj
8r	4cc	rfz
4r	.	.
.	(24gLL	.
.	24e	.
.	24cJJ)	.
!!LO:LB:g=original
=59	=59	=59
8GG\	8r	p
8rEE	8B 8D< 8F<	.
8CC\	8r	.
8rEE	8c 8E< 8G<	.
8AA\	8r	.
8rEE	8c# 8E< 8G<	.
8DD\	8r	.
8rEE	8d 8F< 8A<	.
=60	=60	=60
!	!	!LO:HP:a
8BB\	8r	<
8rEE	8d# 8F#< 8A<	.
8EE\	8r	.
8rEE	8e 8G< 8B<	.
2DD 2D\	8r	.
!	!	!LO:DY:cj
.	8fn 8G< 8B<L	f
.	8f 8G< 8B<	.
.	8f 8G< 8B<J	.
=61	=61	=61
!	!	!LO:HP:a
8CC\	8r	>
8rEE	8f 8G< 8B<	.
8C\	8r	.
8rEE	8c 8e 8G<	.
8AA\	8r	.
8rEE	8c 8d 8F<	.
8FF\	8r	.
8rEE	8c 8f 8A<	.
=62	=62	=62
*>F1	*>F1	*>F1
8GG\	8r	p
8rCC	8c 8e 8G<	.
8GGG\	8r	.
8rCC	8d 8F< 8B<	.
8CC\	8r	.
8rCC	(8cL	.
4rCC	8g)	.
.	8g'J	.
=63:|!	=63:|!	=63:|!
*>F2	*>F2	*>F2
8GG\	8r	p
8rCC	8c 8e 8G<	.
8GGG\	8r	.
8rCC	8d 8F< 8B<	.
8CC\	8r	.
8rCC	(8cL	.
4rCC	8cc)	.
.	8ccJ	.
!!LO:LB:g=original
=64	=64	=64
*>G	*>G	*>G
*	*clefG2	*
8GG	8r	.
8r	(8d' 8f' 8cc'	.
8G	8r	.
8r	8d 8f 8b	.
8G	8r	.
8r	8d' 8f' 8a-'	.
8G	8r	.
8r	8d') 8f' 8g'	.
=65	=65	=65
8GG	8r	.
8r	8cc' 8dd' (8ff'	.
8G	8r	.
8r	8b' 8dd' 8ff'	.
8G	8r	.
8r	8a-' 8dd' 8ff'	.
8G	8r	.
8r	8g' 8dd' 8ff')	.
=66	=66	=66
8GG	8r	>
8r	8b' 8dd' (8aa-'	.
8G	8r	.
8r	8b' 8dd' 8gg'	.
8G	8r	.
8r	8b' 8dd' 8ff#'	.
8G	8r	.
8r	8b' 8dd' 8ffn'	.
=67	=67	=67
8G	8r	pp
8r	8b-' 8dd' 8ff'	.
8G	8r	.
8r	8an' 8dd' 8ff'	.
8G	8r	.
8r	8a-' 8dd' 8ff'	.
8G	8r	.
8r	8g' 8dd' 8ff')	.
!!LO:LB:g=original
=68	=68	=68
(4c	16r	p
.	(16eLL	.
.	16cc	.
.	16gJJ)	.
4d	16r	.
.	(16fLL	.
.	16bn	.
.	16gJJ)	.
4e	16r	.
.	(16f#LL	.
.	16cc	.
.	16gJJ)	.
4B	16r	.
.	(16gLL>	.
.	16dd	.
.	16gJJ)	.
=69	=69	=69
4c	16r	.
.	(16gLL	.
.	16ee	.
.	16ccJJ)	.
4F	16r	.
.	(16aLL	.
.	16ff	.
.	16ddJJ)	.
4.G	16r	.
.	(16gLL	.
.	16dd	.
.	16bJJ	.
.	16ddLL	.
.	16b	.
8F)	16dd	.
.	16bJJ)	.
=70	=70	=70
(4E/	16r	.
.	(16gLL	.
.	16gg	.
.	16ccJJ)	.
4D/	16r	.
.	(16gLL	.
.	16gg	.
.	16ffJJ)	.
4C	16r	.
.	(16gLL	.
.	16gg	.
.	16eeJJ)	.
4BB	16r	.
.	(16g#LL	.
.	16gg#	.
.	16ddJJ)	.
!!LO:LB:g=original
=71	=71	=71
4AA	16r	.
.	(16aLL	.
.	16aa	.
.	16ccJJ)	.
4FF	16r	.
.	(16aLL	.
.	16aa	.
.	16ffJJ)	.
2GG)	(16ddLL	.
.	16b	.
.	16ff	.
.	16ddJJ	.
.	16bLL<	.
.	16g	.
.	16f	.
.	16dJJ)	.
=72	=72	=72
(4C	16r	<
.	(16eLL	.
.	16cc	.
.	16gJJ)	.
4D/	16r	.
.	(16fLL	.
.	16b	.
.	16gJJ)	.
4E/	16r	.
.	(16f#LL	.
.	16cc	.
.	16gJJ)	.
4BB	16r	.
.	(16dLL	.
.	16dd	.
.	16gJJ)	.
=73	=73	=73
4C	16r	.
.	16eLL	.
.	16ee	.
.	16gJJ	.
4AA	16r	.
.	(16f#LL	.
.	16ff#	.
.	16ccJJ)	.
2BB)	16r	.
!	!	!LO:DY:cj
.	(16ddLL	rfz
.	16gg	.
.	16ff#JJ	.
.	16ggLL	.
.	16dd	.
.	16b	.
.	16gJJ)	.
!!LO:LB:g=original
=74	=74	=74
(4C	16r	<
.	(16eeLL	.
.	16aa	.
.	16ggJJ)	.
4C#	16r	.
.	(16eeLL	.
.	16aa#	.
.	16ggJJ)	.
2D/)	16r	rfz
.	(16ggLL	.
.	16bb	.
.	16aa#JJ)	.
.	(16bbLL	.
.	16gg	.
.	16dd	.
.	16bJJ)	.
=75	=75	=75
(4DD	(16ddLL	p
.	16cc	.
.	16ee	.
.	16ccJJ	.
4D/	16bLL<	.
.	16a	.
.	16g	.
.	16f#JJ)	.
2GG)	(16gLL<	.
.	16a	.
.	16b	.
.	16ccJJ	.
.	16ddLL	.
.	16ee	.
.	16ffn	.
.	16ff#JJ)	.
=76	=76	=76
4e	16r	.
!	!	!LO:HP:t=legato e %s
.	(16gLL	<
.	16gg	.
.	16ccJJ)	.
4d	16r	.
.	(16gLL	.
.	16ffn	.
.	16bJJ)	.
4c	16r	.
.	(16gLL	.
.	16ee	.
.	16ccJJ)	.
4B-	16r	.
.	(16gLL	.
.	16ee	.
.	16ccJJ)	.
!!LO:LB:g=original
=77	=77	=77
(4A	16r	.
.	(16ccLL	<
.	16ccc	.
.	16ffJJ)	.
4G	16r	.
.	(16ccLL	.
.	16bb-	.
.	16eeJJ)	.
2F)	16r	[
.	(16ccLL	>
.	16aa	.
.	16ffJJ	.
.	16aaLL	.
.	16ff	.
.	16aa	.
.	16ffJJ)	]]
=78	=78	=78
(4F	16r	p
.	(16aLL	.
.	16aa	.
.	16ccJJ)	.
4E	16r	.
.	(16aLL	.
.	16gg	.
.	16cc#JJ)	.
4D	16r	<
.	(16aLL	.
.	16ff	.
.	16ddJJ)	.
4E	16r	.
.	(16gLL	.
.	16ee	.
.	16cc#JJ)	.
=79	=79	=79
4F	16r	.
.	(16fLL	.
.	16dd	.
.	16aJJ)	.
4F#	16r	.
.	(16e-LL	.
.	16cc	.
.	16aJJ)	.
4.G	16r	sf >
.	(16dLL	.
.	16cc	.
.	16gJJ)	.
.	(16bLL	.
.	16g	.
8Fn)	16d	.
.	16gJJ)	]]
!!LO:LB:g=original
=80	=80	=80
(4E/	16r	p
.	(16cLL	.
.	16cc	.
.	16gJJ)	.
4D/	16r	.
.	(16fLL	.
.	16b	.
.	16gJJ)	.
4C	16r	.
.	(16eLL	.
.	16cc	.
.	16gJJ)	.
4BB	16r	.
.	(16dLL	.
.	16dd	.
.	16gJJ)	.
=81	=81	=81
4C	16r	.
.	(16gLL	.
.	16ee	.
.	16ccJJ)	.
4FF	16r	.
.	(16aLL	.
.	16ff	.
.	16ddJJ)	.
4.GG	16r	.
.	(16gLL	.
.	16dd	.
.	16bJJ)	.
.	(16ddLL	.
.	16b	.
8FF)	16dd	.
.	16bJJ)	.
=82	=82	=82
*^	*	*
(4EE	2EE	16r	<
.	.	(16gLL	.
.	.	16gg	.
.	.	16ccJJ)	.
4E	.	16r	.
.	.	(16b-LL	.
.	.	16gg	.
.	.	16cc#JJ)	.
4FF	2FF	16r	.
.	.	(16aLL	.
.	.	16gg	.
.	.	16cc#JJ)	.
4F)	.	16r	.
.	.	(16aLL	.
.	.	16ff	.
.	.	16ddJJ)	.
!!LO:LB:g=original
=83	=83	=83	=83
(4GG	2GG	16r	.
.	.	(16gLL>	.
.	.	16ee	.
.	.	16ccnJJ)	.
4G	.	16r	.
.	.	(16fLL	.
.	.	16dd	.
.	.	16bJJ)	.
4E)	4C	16r	>
.	.	(16eLL	.
.	.	16cc	.
.	.	16gJJ	.
4r	4r	16fLL	.
.	.	16e	.
.	.	16d	.
.	.	16cJJ)	]]
*v	*v	*	*
=84	=84	=84
!	!	!LO:DY:b=2
(4GG	16rc<	rfz
.	(16D<LL	.
.	16B<	.
.	16F<JJ)	.
8CC)	16rc<	.
.	(16E<LL	.
8r	16c<	.
.	16G<JJ)	.
!	!	!LO:DY:b=2
(4AA	16rc<	rfz
.	(16E<LL	.
.	16c#<	.
.	16G<JJ)	.
8DD)	16rc<	.
.	(16F<LL	.
8r	16d<	.
.	16A<JJ)	.
=85	=85	=85
!	!	!LO:DY:b=2
(4BB	16re<	rfz
.	(16F#<LL	.
.	16d#<	.
.	16A<JJ)	.
8EE)	16re<	.
.	(16G<LL	.
8r	16e<	.
.	16B<JJ)	.
!	!	!LO:DY:b=2:rj
2DDn 2Dn	16r	f
!	!	!LO:DY:rj
.	(16GLL	f
.	16fn	.
.	16BJJ)	.
.	(16fLL	.
.	16B	.
.	16f	.
.	16BJJ)	.
!!LO:LB:g=original
=86	=86	=86
(4CC	16r	>
.	(16GLL	.
.	16f	.
.	16BJJ)	.
4C	16r	.
.	(16GLL	.
.	16e	.
.	16cJJ)	.
4AA	16r	.
.	(16FLL	.
.	16d	.
.	16cJJ)	.
4FF)	16r	.
.	(16ALL	.
.	16f	.
.	16cJJ)	.
=87	=87	=87
(4GG	16r	p
.	(16GLL	.
.	16e	.
.	16cJJ)	.
4GGG	16r	.
.	(16FLL	.
.	16d	.
.	16BJJ)	.
8CC)	16r	<
.	(16cLL	.
8r	16d	.
.	16eJJ	.
4r	16fLL	.
.	16g	.
.	16a	.
.	16bJJ)	.
=88	=88	=88
8c' 8e'	8g' 8cc'	p
8r	8r	.
8d' 8f'	8g' 8b'	.
8r	8r	.
8e'	8g' 8cc'	.
8r	8r	.
8B' 8f'	8g'/ 8dd'/	.
8r	8r	.
!!LO:LB:g=original
=89	=89	=89
8c' 8e'	8g' 8ee'	.
8r	8r	.
8F' 8d'	8a' 8ff'	.
8r	8r	.
8G' 8B'	8g' 8dd'	.
8r	8r	.
4r	4r	.
*clefG2	*	*
=90	=90	=90
8e' 8g'	8gg'	pp
8r	8r	.
8d' 8g'	8ff' 8gg'	.
8r	8r	.
8c' 8g'	8ee' 8gg'	.
8r	8r	.
8B' 8e'	8dd' 8gg#'	.
8r	8r	.
=91	=91	=91
8A' 8e'	8cc' 8aa'	.
8r	8r	.
4r	4r	.
*clefF4	*	*
8FF' 8AA' 8D' 8F'	8A' 8d' 8f'	.
8r	8r	.
4r	4r	.
=92	=92	=92
8G' 8c' 8e'	8g' 8cc' 8ee'	.
8r	8r	.
4r	4r	.
!	!	!LO:DY:rj
8GG' 8BB' 8D' 8F'	8B' 8d'	pp
8r	8r	.
4r	4r	.
=93	=93	=93
4CC 4EE 4GG 4C	4cc 4ee 4gg 4ccc	ff
4r	4r	.
4r	4r	.
8.r	8.r	.
==	==	==
*-	*-	*-
!!!RDF**kern: < = below
!!!RDF**kern: > = above
!!!verovio: beamFrenchStyle
!!!LOR: Durand 1915, plates 9327/9328, Paul Dukas, ed.
!!!PED: Dukas, Paul
!!!URL-github: https://github.com/craigsapp/beethoven-piano-sonatas/blob/main/kern/sonata10-2.krn
!!!URL-vhv: https://verovio.humdrum.org/?file=beethoven/sonatas/sonata10-2.krn
!!!URL-pdf: https://github.com/craigsapp/beethoven-piano-sonatas/blob/master/reference-edition/sonata10-2.pdf
!!!ENC: Craig Stuart Sapp
!!!END: 2004/11/11
!!!EED: Craig Stuart Sapp
!!!EEV: 2023/03/12
